X:1     %Music
T:Four in a Boat
B:Singing Together, Autumn 1970, BBC Publications
F:http://www.folkinfo.org/songs
M:2/2     %Meter
L:1/8     %
K:G
G2 BB G2 BB |G2 E2 D4 |G2 BB G2 BB |d2 d2 A4 |
w:Four in a boat and the tide rolls high, Four in a boat and the tide rolls high, 
d2 dd B2 BB |G2 G2 c4 |BBBB AAAA |G2 B2 G4 |]
w:Four in a boat and the tide rolls high, Wait-ing for a pret-ty one to come on by. 